X: 3
T: Cliffs of Moher
Z: Transcribed to abc by Mary Lou Knack
R: jig
M: 6/8
K: Ador
"Am"a2a bag| eaf "G"ged| "Am"c2A BAG| "Em"EFG ABd|
"Am"eaa bag| eaf "G"ged| "Am"c2A BAG| "Em"EFG "Am"A3 :|
|:\
"Am"e=fe dBA| ~e3 dBA|  "G"GAB dBA| GAB ~d3|
[1"Am"e=fe dBA| ~e3 dBA|  "G"GAB dBG| "Em"EFG "Am"[E3A3] :|
[2 "Am"e=fe dee| cee Bee| EFG BAG| "G"EDB, "Am"A,3 |]
%%text Roaring Jelly  J-67
%%text 10/31/00
